static/lexicon/images/home/principles02.svg

<?xml version="1.0" encoding="UTF-8"?>
<svg width="168px" height="171px" viewBox="0 0 168 171" version="1.1" xmlns="http://www.w3.org/2000/svg" xmlns:xlink="http://www.w3.org/1999/xlink">
    <!-- Generator: Sketch 50.2 (55047) - http://www.bohemiancoding.com/sketch -->
    <title>Group</title>
    <desc>Created with Sketch.</desc>
    <defs></defs>
    <g id="Page-1" stroke="none" stroke-width="1" fill="none" fill-rule="evenodd">
        <g id="Canvas-Copy-65" transform="translate(-12.000000, -12.000000)">
            <g id="Group" transform="translate(16.000000, 16.000000)">
                <polygon id="Path-2" fill="#FFFFFF" points="3 112 19 138 37 134 53 138 71 112"></polygon>
                <polygon id="Path-46" fill="#53E6C1" points="23 136 36 155 49 136"></polygon>
                <path d="M53.0442768,138.27835 C47.9725002,135.548771 42.1710245,134 36.0078139,134 C30.0576872,134 24.4447149,135.44353 19.5,137.999486" id="Combined-Shape-Copy-2" stroke="#0B5FFF" stroke-width="8" stroke-linejoin="round"></path>
                <path d="M36,160 L72,112 L72,36 C72,16.117749 55.882251,0 36,0 C16.117749,0 0,16.117749 0,36 L0,112 L36,160 Z" id="Path-47" stroke="#0B5FFF" stroke-width="8"></path>
                <rect id="Rectangle-7-Copy-13" stroke="#0B5FFF" stroke-width="8" fill="#E1EBFF" transform="translate(124.000000, 80.000000) scale(1, -1) translate(-124.000000, -80.000000) " x="88" y="0" width="72" height="160"></rect>
                <path d="M88,96 L128,96" id="Line-Copy-2" stroke="#0B5FFF" stroke-width="8" stroke-linecap="square"></path>
                <path d="M88,128 L128,128" id="Line-Copy-4" stroke="#0B5FFF" stroke-width="8" stroke-linecap="square"></path>
                <path d="M88,64 L128,64" id="Line-Copy-7" stroke="#0B5FFF" stroke-width="8" stroke-linecap="square"></path>
                <circle id="Oval-2-Copy-21" stroke="#0B5FFF" stroke-width="8" fill="#53E6C1" transform="translate(133.500000, 29.500000) scale(1, -1) translate(-133.500000, -29.500000) " cx="133.5" cy="29.5" r="13.5"></circle>
                <path d="M24,44 L24,108" id="Line" stroke="#0B5FFF" stroke-width="8" stroke-linecap="square"></path>
                <path d="M48,44 L48,108" id="Line-Copy" stroke="#0B5FFF" stroke-width="8" stroke-linecap="square"></path>
                <path d="M0,40 L72,40" id="Line-Copy-3" stroke="#0B5FFF" stroke-width="8"></path>
                <path d="M0,110 L72,110" id="Line-Copy-6" stroke="#0B5FFF" stroke-width="8"></path>
            </g>
        </g>
    </g>
</svg>

<svg width="168" height="171" xmlns="http://www.w3.org/2000/svg"><g transform="translate(4 4)" fill="none" fill-rule="evenodd"><path fill="#FFF" d="M3 112L19 138 37 134 53 138 71 112z"/><path fill="#53E6C1" d="M23 136L36 155 49 136z"/><path d="M53.044 138.278A35.84 35.84 0 0 0 36.008 134a35.846 35.846 0 0 0-16.508 4" stroke="#0B5FFF" stroke-width="8" stroke-linejoin="round"/><path d="M36 160l36-48V36C72 16.118 55.882 0 36 0S0 16.118 0 36v76l36 48z" stroke="#0B5FFF" stroke-width="8"/><path stroke="#0B5FFF" stroke-width="8" fill="#E1EBFF" transform="matrix(1 0 0 -1 0 160)" d="M88 0H160V160H88z"/><path d="M88 96h40m-40 32h40M88 64h40" stroke="#0B5FFF" stroke-width="8" stroke-linecap="square"/><circle stroke="#0B5FFF" stroke-width="8" fill="#53E6C1" transform="matrix(1 0 0 -1 0 59)" cx="133.5" cy="29.5" r="13.5"/><path d="M24 44v64m24-64v64" stroke="#0B5FFF" stroke-width="8" stroke-linecap="square"/><path d="M0 40h72M0 110h72" stroke="#0B5FFF" stroke-width="8"/></g></svg>
